T: Strange Drums, The
M: 3/4
L: 1/8
K: Dmaj
F2 FE FA | F2 FE FA | E2 ED EF | E2 DE FA |F2 FE FA | F2 EA AB | d2 Ad-de | f2 ed BA | ETC ETC..F3 EFA | F3 EFA | E3 DEF | E2D EFA | etc .
